Sweet-Rainbow/icons/octave.svg

<?xml version="1.0" encoding="UTF-8" standalone="no"?>
<!-- Generator: Gravit.io -->

<svg
   xmlns:dc="http://purl.org/dc/elements/1.1/"
   xmlns:cc="http://creativecommons.org/ns#"
   xmlns:rdf="http://www.w3.org/1999/02/22-rdf-syntax-ns#"
   xmlns:svg="http://www.w3.org/2000/svg"
   xmlns="http://www.w3.org/2000/svg"
   xmlns:sodipodi="http://sodipodi.sourceforge.net/DTD/sodipodi-0.dtd"
   xmlns:inkscape="http://www.inkscape.org/namespaces/inkscape"
   style="isolation:isolate"
   viewBox="0 0 36 36"
   width="48"
   height="48"
   version="1.1"
   id="svg16"
   sodipodi:docname="octave.svg"
   inkscape:version="0.92.4 (5da689c313, 2019-01-14)">
  <metadata
     id="metadata22">
    <rdf:RDF>
      <cc:Work
         rdf:about="">
        <dc:format>image/svg+xml</dc:format>
        <dc:type
           rdf:resource="http://purl.org/dc/dcmitype/StillImage" />
        <dc:title></dc:title>
      </cc:Work>
    </rdf:RDF>
  </metadata>
  <defs
     id="defs20" />
  <sodipodi:namedview
     pagecolor="#ffffff"
     bordercolor="#666666"
     borderopacity="1"
     objecttolerance="10"
     gridtolerance="10"
     guidetolerance="10"
     inkscape:pageopacity="0"
     inkscape:pageshadow="2"
     inkscape:window-width="640"
     inkscape:window-height="480"
     id="namedview18"
     showgrid="false"
     inkscape:zoom="29.365243"
     inkscape:cx="25.325443"
     inkscape:cy="32"
     inkscape:current-layer="svg16"
     units="px" />
  <linearGradient
     id="_lgradient_19"
     x1="0"
     y1="0.5"
     x2="0.90748805"
     y2="0.92007786"
     gradientTransform="matrix(40.765,0,0,41.967,5.792,3.672)"
     gradientUnits="userSpaceOnUse">
    <stop
       offset="0%"
       stop-opacity="1"
       style="stop-color:rgb(0,196,255)"
       id="stop2" />
    <stop
       offset="83.88839793817618%"
       stop-opacity="1"
       style="stop-color:rgb(0,114,255)"
       id="stop4" />
  </linearGradient>
  <linearGradient
     id="_lgradient_20"
     x1="0"
     y1="0.5"
     x2="1"
     y2="0.5"
     gradientTransform="matrix(48,0,0,38.689,0,2.361)"
     gradientUnits="userSpaceOnUse">
    <stop
       offset="0%"
       stop-opacity="1"
       style="stop-color:rgb(255,224,49)"
       id="stop9" />
    <stop
       offset="98.69565217391305%"
       stop-opacity="1"
       style="stop-color:rgb(252,82,82)"
       id="stop11" />
  </linearGradient>
  <g
     id="g831"
     transform="scale(0.75)">
    <path
       id="path7"
       d="M 35.292,37.023 40,39.082 c 0.181,-0.068 -1.301,2.048 -1.573,2.164 -3.678,2.84 -8.208,4.393 -12.853,4.393 -4.197,0 -8.302,-1.259 -11.777,-3.619 C 10.374,39.708 7.715,36.43 6.157,32.611 5.854,32.576 5.659,31.31 5.902,31.213 l 5.049,-0.734 c 1.167,2.924 3.187,5.442 5.797,7.2 2.596,1.77 5.678,2.714 8.826,2.714 3.528,0 6.951,-1.18 9.718,-3.37 z M 10.911,18.938 6.02,17.023 c 1.534,-3.934 4.223,-7.305 7.711,-9.692 3.489,-2.387 7.62,-3.659 11.843,-3.659 2.675,0 5.324,0.512 7.803,1.495 L 32.131,10.23 C 30.269,9.482 27.58,8.918 25.574,8.918 c -3.161,0 -6.269,0.957 -8.879,2.741 -2.61,1.784 -4.629,4.328 -5.784,7.279 z M 42.17,16.8 v 0 c 1.307,-0.622 2.967,0.13 3.705,1.679 0,0 0.682,3.069 0.682,6.177 0,1.01 -0.065,2.019 -0.209,3.016 h -5.037 c 0.105,-0.761 0,-2.256 0,-3.016 0,-2.335 -0.511,-4.63 -0.511,-4.63 -0.55,-1.158 0.064,-2.604 1.37,-3.226 z"
       inkscape:connector-curvature="0"
       style="fill:url(#_lgradient_19);fill-rule:evenodd" />
    <path
       id="path14"
       d="m 4.59,19.948 v 0 c -1.086,0 -1.967,-0.882 -1.967,-1.968 v 0 c 0,-1.085 0.881,-1.967 1.967,-1.967 v 0 h 9.836 c 1.448,0 2.623,1.175 2.623,2.623 v 11.266 c 0,1.447 -1.175,2.623 -2.623,2.623 H 2.623 C 1.175,32.525 0,31.349 0,29.902 v -3.935 0 C 0,24.881 0.881,24 1.967,24 v 0 c 1.086,0 1.967,0.881 1.967,1.967 v 0 1.312 c 0,0.724 0.588,1.311 1.312,1.311 h 6.557 c 0.724,0 1.312,-0.587 1.312,-1.311 v -6.02 c 0,-0.724 -0.588,-1.311 -1.312,-1.311 z m 33.312,10.609 v 0 c -1.086,0 -1.968,-0.881 -1.968,-1.967 v 0 c 0,-1.086 0.882,-1.967 1.968,-1.967 v 0 h 7.475 c 1.448,0 2.623,1.175 2.623,2.623 v 9.18 c 0,1.448 -1.175,2.623 -2.623,2.623 h -8.656 c -1.447,0 -2.623,-1.175 -2.623,-2.623 v -3.016 0 c 0,-1.086 0.882,-1.967 1.968,-1.967 v 0 c 1.085,0 1.967,0.881 1.967,1.967 v 0 0.393 c 0,0.724 0.587,1.312 1.311,1.312 h 3.41 c 0.724,0 1.312,-0.588 1.312,-1.312 v -3.934 c 0,-0.724 -0.588,-1.312 -1.312,-1.312 z M 34.754,4.984 h 2.623 c 0.724,0 1.312,0.587 1.312,1.311 v 2.623 c 0,0.724 -0.588,1.312 -1.312,1.312 h -2.623 c -0.724,0 -1.311,-0.588 -1.311,-1.312 V 6.295 c 0,-0.724 0.587,-1.311 1.311,-1.311 z M 33.443,2.361 h 5.246 c 1.447,0 2.622,1.175 2.622,2.623 v 5.246 c 0,1.447 -1.175,2.622 -2.622,2.622 h -5.246 c -1.448,0 -2.623,-1.175 -2.623,-2.622 V 4.984 c 0,-1.448 1.175,-2.623 2.623,-2.623 z"
       inkscape:connector-curvature="0"
       style="fill:url(#_lgradient_20);fill-rule:evenodd" />
  </g>
</svg>

<?xml version="1.0" encoding="UTF-8" standalone="no"?><!-- Generator: Gravit.io --><svg xmlns="http://www.w3.org/2000/svg" xmlns:xlink="http://www.w3.org/1999/xlink" style="isolation:isolate" viewBox="0 0 48 48" width="48pt" height="48pt"><linearGradient id="_lgradient_19" x1="0" y1="0.5" x2="0.9074880558539661" y2="0.9200778838291643" gradientTransform="matrix(40.765,0,0,41.967,5.792,3.672)" gradientUnits="userSpaceOnUse"><stop offset="0%" stop-opacity="1" style="stop-color:rgb(0,196,255)"/><stop offset="83.88839793817618%" stop-opacity="1" style="stop-color:rgb(0,114,255)"/></linearGradient><path d=" M 35.292 37.023 L 40 39.082 C 40.181 39.014 38.699 41.13 38.427 41.246 C 34.749 44.086 30.219 45.639 25.574 45.639 C 21.377 45.639 17.272 44.38 13.797 42.02 C 10.374 39.708 7.715 36.43 6.157 32.611 C 5.854 32.576 5.659 31.31 5.902 31.213 L 10.951 30.479 C 12.118 33.403 14.138 35.921 16.748 37.679 C 19.344 39.449 22.426 40.393 25.574 40.393 C 29.102 40.393 32.525 39.213 35.292 37.023 L 35.292 37.023 Z  M 10.911 18.938 L 6.02 17.023 C 7.554 13.089 10.243 9.718 13.731 7.331 C 17.22 4.944 21.351 3.672 25.574 3.672 C 28.249 3.672 30.898 4.184 33.377 5.167 L 32.131 10.23 C 30.269 9.482 27.58 8.918 25.574 8.918 C 22.413 8.918 19.305 9.875 16.695 11.659 C 14.085 13.443 12.066 15.987 10.911 18.938 L 10.911 18.938 Z  M 42.17 16.8 L 42.17 16.8 C 43.477 16.178 45.137 16.93 45.875 18.479 C 45.875 18.479 46.557 21.548 46.557 24.656 C 46.557 25.666 46.492 26.675 46.348 27.672 L 41.311 27.672 C 41.416 26.911 41.311 25.416 41.311 24.656 C 41.311 22.321 40.8 20.026 40.8 20.026 C 40.25 18.868 40.864 17.422 42.17 16.8 Z " fill-rule="evenodd" fill="url(#_lgradient_19)"/><linearGradient id="_lgradient_20" x1="0" y1="0.5" x2="1" y2="0.5" gradientTransform="matrix(48,0,0,38.689,0,2.361)" gradientUnits="userSpaceOnUse"><stop offset="0%" stop-opacity="1" style="stop-color:rgb(255,224,49)"/><stop offset="98.69565217391305%" stop-opacity="1" style="stop-color:rgb(252,82,82)"/></linearGradient><path d=" M 4.59 19.948 L 4.59 19.948 C 3.504 19.948 2.623 19.066 2.623 17.98 L 2.623 17.98 C 2.623 16.895 3.504 16.013 4.59 16.013 L 4.59 16.013 L 14.426 16.013 C 15.874 16.013 17.049 17.188 17.049 18.636 L 17.049 29.902 C 17.049 31.349 15.874 32.525 14.426 32.525 L 2.623 32.525 C 1.175 32.525 0 31.349 0 29.902 L 0 25.967 L 0 25.967 C 0 24.881 0.881 24 1.967 24 L 1.967 24 C 3.053 24 3.934 24.881 3.934 25.967 L 3.934 25.967 L 3.934 27.279 C 3.934 28.003 4.522 28.59 5.246 28.59 L 11.803 28.59 C 12.527 28.59 13.115 28.003 13.115 27.279 L 13.115 21.259 C 13.115 20.535 12.527 19.948 11.803 19.948 L 4.59 19.948 L 4.59 19.948 Z  M 37.902 30.557 L 37.902 30.557 C 36.816 30.557 35.934 29.676 35.934 28.59 L 35.934 28.59 C 35.934 27.504 36.816 26.623 37.902 26.623 L 37.902 26.623 L 45.377 26.623 C 46.825 26.623 48 27.798 48 29.246 L 48 38.426 C 48 39.874 46.825 41.049 45.377 41.049 L 36.721 41.049 C 35.274 41.049 34.098 39.874 34.098 38.426 L 34.098 35.41 L 34.098 35.41 C 34.098 34.324 34.98 33.443 36.066 33.443 L 36.066 33.443 C 37.151 33.443 38.033 34.324 38.033 35.41 L 38.033 35.41 L 38.033 35.803 C 38.033 36.527 38.62 37.115 39.344 37.115 L 42.754 37.115 C 43.478 37.115 44.066 36.527 44.066 35.803 L 44.066 31.869 C 44.066 31.145 43.478 30.557 42.754 30.557 L 37.902 30.557 L 37.902 30.557 Z  M 34.754 4.984 L 37.377 4.984 C 38.101 4.984 38.689 5.571 38.689 6.295 L 38.689 8.918 C 38.689 9.642 38.101 10.23 37.377 10.23 L 34.754 10.23 C 34.03 10.23 33.443 9.642 33.443 8.918 L 33.443 6.295 C 33.443 5.571 34.03 4.984 34.754 4.984 L 34.754 4.984 Z  M 33.443 2.361 L 38.689 2.361 C 40.136 2.361 41.311 3.536 41.311 4.984 L 41.311 10.23 C 41.311 11.677 40.136 12.852 38.689 12.852 L 33.443 12.852 C 31.995 12.852 30.82 11.677 30.82 10.23 L 30.82 4.984 C 30.82 3.536 31.995 2.361 33.443 2.361 L 33.443 2.361 Z " fill-rule="evenodd" fill="url(#_lgradient_20)"/></svg>
